; generated by Slic3r 1.3.0 on 2025-04-19 at 21:58:14

; external perimeters extrusion width = 0.44mm (2.38mm^3/s)
; perimeters extrusion width = 0.56mm (6.20mm^3/s)
; infill extrusion width = 0.50mm (7.31mm^3/s)
; solid infill extrusion width = 0.56mm (2.07mm^3/s)
; top infill extrusion width = 0.56mm (1.55mm^3/s)

M107
G28
M140 S60
M104 S200
M190 S60
M109 S200
; Filament gcode

G21 ; set units to millimeters
G90 ; use absolute coordinates
M82 ; use absolute distances for extrusion
G92 E0
G1 Z0.350 F7200.000
G1 E-6.50000 F1500.00000
G92 E0
G1 X86.195 Y86.752 F7200.000
G1 E6.50000 F1500.00000
G1 F1800
G1 X88.201 Y85.640 E6.70854
G1 X90.361 Y85.278 E6.90770
G1 X95.759 Y85.278 E7.39854
G1 X110.657 Y85.436 E8.75330
G1 X112.912 Y85.857 E8.96184
G1 X114.888 Y87.021 E9.17038
G1 X116.748 Y89.625 E9.46138
G1 X119.490 Y96.561 E10.13960
G1 X119.954 Y98.997 E10.36503
G1 X119.954 Y104.202 E10.83829
G1 X119.557 Y106.460 E11.04684
G1 X118.687 Y108.098 E11.21547
G1 X118.151 Y108.820 E11.29719
G1 X115.398 Y112.230 E11.69573
G1 X113.671 Y113.739 E11.90427
G1 X111.532 Y114.567 E12.11282
G1 X110.264 Y114.694 E12.22870
G1 X95.097 Y114.722 E13.60782
G1 X92.838 Y114.325 E13.81636
G1 X91.413 Y113.604 E13.96161
G1 X82.987 Y107.966 E14.88345
G1 X81.330 Y106.380 E15.09199
G1 X80.314 Y104.324 E15.30054
G1 X80.046 Y102.460 E15.47180
G1 X80.046 Y98.020 E15.87553
G1 X80.443 Y95.761 E16.08407
G1 X80.998 Y94.598 E16.20126
G1 X84.688 Y88.481 E16.85087
G1 X86.156 Y86.797 E17.05396
G1 E10.55396 F1500.00000
G92 E0
G1 X100.005 Y106.381 F7200.000
G1 E6.50000 F1500.00000
G1 F1800
G1 X100.005 Y107.122 E6.56739
G1 X97.489 Y107.122 E6.79624
G1 X97.489 Y104.924 E6.99616
G1 X100.735 Y104.924 E7.29135
G1 X100.735 Y106.381 E7.42388
G1 X100.065 Y106.381 E7.48477
G1 E0.98477 F1500.00000
G92 E0
G1 X96.293 Y103.442 F7200.000
G1 E6.50000 F1500.00000
G1 F1800
G1 X97.033 Y103.442 E6.56733
G1 X97.036 Y105.197 E6.72697
G1 X95.085 Y105.197 E6.90439
G1 X95.085 Y101.492 E7.24133
G1 X94.296 Y101.492 E7.31310
G1 X94.296 Y100.751 E7.38051
G1 X93.309 Y100.751 E7.47023
G1 X93.309 Y99.991 E7.53931
G1 X92.100 Y99.991 E7.64925
G1 X92.100 Y99.191 E7.72194
G1 X91.380 Y99.199 E7.78742
G1 X91.380 Y98.525 E7.84868
G1 X89.165 Y98.525 E8.05007
G1 X89.165 Y97.219 E8.16884
G1 X89.955 Y97.219 E8.24061
G1 X89.955 Y96.583 E8.29845
G1 X90.547 Y96.583 E8.35228
G1 X90.547 Y95.838 E8.42005
G1 X94.122 Y95.838 E8.74517
G1 X94.122 Y96.583 E8.81293
G1 X94.714 Y96.583 E8.86676
G1 X94.714 Y97.219 E8.92460
G1 X95.503 Y97.219 E8.99637
G1 X95.503 Y98.571 E9.11930
G1 X96.293 Y98.571 E9.19108
G1 X96.293 Y103.382 E9.62852
G1 X96.918 Y102.817 F7200.000
G1 F1800
G1 X97.657 Y102.817 E9.69575
G1 X97.660 Y104.299 E9.83052
G1 X101.360 Y104.299 E10.16698
G1 X101.360 Y107.006 E10.41315
G1 X100.630 Y107.006 E10.47950
G1 X100.630 Y107.747 E10.54688
G1 X95.447 Y107.747 E11.01819
G1 X95.447 Y107.238 E11.06453
G1 X96.864 Y107.238 E11.19334
G1 X96.864 Y105.822 E11.32205
G1 X95.339 Y105.822 E11.46068
G1 X95.339 Y107.006 E11.56834
G1 X94.460 Y107.006 E11.64824
G1 X94.460 Y102.117 E12.09284
G1 X93.671 Y102.117 E12.16461
G1 X93.671 Y101.375 E12.23202
G1 X92.684 Y101.375 E12.32174
G1 X92.684 Y100.616 E12.39082
G1 X91.475 Y100.616 E12.50076
G1 X91.475 Y99.823 E12.57286
G1 X90.755 Y99.830 E12.63834
G1 X90.755 Y99.150 E12.70019
G1 X88.551 Y99.150 E12.90060
G1 X88.551 Y99.829 E12.96232
G1 X87.762 Y99.829 E13.03409
G1 X87.762 Y100.630 E13.10695
G1 X87.021 Y100.630 E13.17432
G1 X87.021 Y98.370 E13.37981
G1 X87.751 Y98.370 E13.44621
G1 X87.751 Y97.684 E13.50862
G1 X88.540 Y97.684 E13.58039
G1 X88.540 Y96.594 E13.67947
G1 X89.330 Y96.594 E13.75124
G1 X89.330 Y95.958 E13.80908
G1 X89.922 Y95.958 E13.86291
G1 X89.922 Y95.213 E13.93067
G1 X90.711 Y95.213 E14.00245
G1 X90.711 Y93.831 E14.12805
G1 X91.392 Y93.831 E14.19000
G1 X91.392 Y94.423 E14.24383
G1 X92.182 Y94.423 E14.31561
G1 X92.182 Y95.213 E14.38738
G1 X93.671 Y95.213 E14.52280
G1 X93.671 Y94.423 E14.59458
G1 X94.747 Y94.423 E14.69242
G1 X94.747 Y95.958 E14.83195
G1 X95.339 Y95.958 E14.88578
G1 X95.339 Y96.594 E14.94362
G1 X96.128 Y96.594 E15.01540
G1 X96.128 Y97.946 E15.13833
G1 X96.918 Y97.946 E15.21010
G1 X96.918 Y102.757 E15.64755
G1 X96.939 Y103.216 F7200.000
G1 E9.14755 F1500.00000
G92 E0
G1 X90.706 Y93.481 F7200.000
G1 E6.50000 F1500.00000
G1 F1800
G1 X90.706 Y92.495 E6.58838
G1 F1800
G1 X90.739 Y92.281 E6.60982
G1 X90.817 Y92.260 E6.61782
G1 F1800
G1 X90.974 Y92.219 E6.63191
G1 F1800
G1 X91.052 Y92.199 E6.63798
G1 X91.841 Y92.199 E6.69735
G1 E0.19735 F1500.00000
G92 E0
G1 X94.717 Y92.356 F7200.000
G1 E6.50000 F1500.00000
G1 F1800
G1 X94.608 Y92.401 E6.51498
G1 X94.604 Y94.073 E6.72813
G1 X94.717 Y92.356 F7200.000
G1 F1800
G1 X94.825 Y92.311 E6.74158
G1 F1800
G1 X94.934 Y92.266 E6.75348
G1 F1800
G1 X95.043 Y92.221 E6.76386
G1 F1800
G1 X95.097 Y92.199 E6.76828
G1 X95.689 Y92.199 E6.81280
G1 E0.31280 F1500.00000
G92 E0
G1 X98.385 Y99.584 F7200.000
G1 E6.50000 F1500.00000
G1 F1800
G1 X98.385 Y100.176 E6.55000
G1 X98.360 Y100.267 E6.55793
G1 F1800
G1 X98.310 Y100.448 E6.57650
G1 F1800
G1 X98.285 Y100.538 E6.58715
G1 X98.057 Y100.571 E6.61329
G1 F1800
G1 X97.268 Y100.571 E6.69533
G1 E0.19533 F1500.00000
G92 E0
G1 X98.007 Y102.837 F7200.000
G1 E6.50000 F1500.00000
G1 F1800
G1 X100.228 Y102.837 E6.71520
G1 E0.21520 F1500.00000
G92 E0
G1 X87.036 Y102.460 F7200.000
G1 E6.50000 F1500.00000
G1 F1800
G1 X87.036 Y100.980 E6.64106
G1 X87.391 Y100.318 F7200.000
G1 F1800
G1 X87.391 Y99.516 E6.65033
G1 X87.530 Y99.238 E6.65392
G1 F1800
G1 X87.808 Y98.682 E6.66810
G1 X87.333 Y99.632 F7200.000
G1 F1800
G1 X88.853 Y98.011 E6.75707
G1 X89.547 Y98.087 F7200.000
G1 F1800
G1 X90.033 Y97.601 E6.82458
G1 X90.823 Y97.601 E6.90207
G1 X90.823 Y96.965 E6.96453
G1 X91.415 Y96.965 E7.02266
G1 X91.415 Y96.220 E7.09581
G1 X90.929 Y96.705 F7200.000
G1 F1800
G1 X91.415 Y96.219 E7.16330
G1 X92.369 Y96.219 E7.25700
G1 X90.445 Y98.143 E7.52414
G1 X91.399 Y98.143 E7.61783
G1 X93.323 Y96.219 E7.88497
G1 X93.740 Y96.219 E7.92593
G1 X93.740 Y96.757 E7.97866
G1 X91.762 Y98.735 E8.25338
G1 X91.762 Y98.811 E8.26081
G1 X92.482 Y98.803 E8.33151
G1 X92.482 Y98.969 E8.34780
G1 X94.332 Y97.119 E8.60473
G1 X94.332 Y97.601 E8.65205
G1 X94.805 Y97.601 E8.69842
G1 X92.796 Y99.609 E8.97728
G1 X93.691 Y99.609 E9.06513
G1 X93.691 Y99.668 E9.07098
G1 X95.122 Y98.238 E9.26961
G1 X95.122 Y98.953 E9.33978
G1 X95.361 Y98.953 E9.36331
G1 X93.945 Y100.369 E9.55994
G1 X94.678 Y100.369 E9.63187
G1 X94.678 Y100.590 E9.65363
G1 X95.911 Y99.357 E9.82487
G1 X95.911 Y100.311 E9.91856
G1 X95.425 Y100.798 E9.98607
G1 X95.689 Y101.179 F7200.000
G1 F1800
G1 X95.689 Y103.754 E10.17622
G1 X95.467 Y104.622 F7200.000
G1 F1800
G1 X95.953 Y104.136 E10.23941
G1 X96.653 Y104.136 E10.30375
G1 X96.653 Y104.329 E10.32153
G1 X96.167 Y104.816 E10.38474
G1 X94.900 Y105.510 F7200.000
G1 F1800
G1 X94.900 Y106.694 E10.41553
G1 E3.91553 F1500.00000
G92 E0
G1 X98.077 Y106.741 F7200.000
G1 E6.50000 F1500.00000
G1 F1800
G1 X99.512 Y105.306 E6.72143
G1 X98.451 Y105.306 E6.83714
G1 X97.870 Y105.887 E6.92678
G1 X97.870 Y105.792 E6.93713
G1 X97.965 Y105.792 E6.94748
G1 X99.137 Y106.741 F7200.000
G1 F1800
G1 X99.623 Y106.255 E7.02248
G1 E0.52248 F1500.00000
G92 E0
G1 X109.119 Y106.482 F7200.000
G1 E6.50000 F1500.00000
G1 F1800
G1 X109.119 Y93.035 E7.72271
G1 X109.612 Y93.035 E7.76753
G1 X109.612 Y106.491 E8.99102
G1 X109.179 Y106.483 E9.03040
G1 X108.838 Y107.127 F7200.000
G1 F1800
G1 X108.494 Y107.121 E9.06165
G1 X108.494 Y98.642 E9.83262
G1 X106.807 Y98.642 E9.98603
G1 X106.807 Y103.129 E10.39401
G1 X106.526 Y103.129 E10.41958
G1 X106.526 Y103.595 E10.46201
G1 X106.086 Y103.595 E10.50199
G1 X106.086 Y103.129 E10.54442
G1 X105.713 Y103.129 E10.57842
G1 X105.713 Y98.661 E10.98468
G1 X105.964 Y98.661 E11.00753
G1 X105.964 Y98.320 E11.03849
G1 X106.359 Y98.320 E11.07439
G1 X106.359 Y97.980 E11.10536
G1 X106.700 Y97.980 E11.13636
G1 X106.700 Y97.587 E11.17210
G1 X108.494 Y97.587 E11.33529
G1 X108.494 Y92.410 E11.80598
G1 X110.237 Y92.410 E11.96445
G1 X110.237 Y97.984 E12.47122
G1 X111.587 Y97.984 E12.59399
G1 X111.587 Y98.647 E12.65430
G1 X110.237 Y98.647 E12.77707
G1 X110.237 Y107.126 E13.54812
G1 X109.894 Y107.120 E13.57937
G1 X109.894 Y107.718 E13.63368
G1 X108.838 Y107.714 E13.72966
G1 X108.838 Y107.187 E13.77762
G1 X108.723 Y106.803 F7200.000
G1 E7.27762 F1500.00000
G92 E0
G1 X112.135 Y97.974 F7200.000
G1 E6.50000 F1500.00000
G1 F1800
G1 X112.135 Y98.315 E6.51778
G1 X112.154 Y98.439 E6.52433
G1 X112.243 Y98.462 E6.52912
G1 F1800
G1 X112.332 Y98.486 E6.53267
G1 X112.685 Y98.486 E6.54633
G1 X112.647 Y99.347 F7200.000
G1 F1800
G1 X112.979 Y99.347 E6.57655
G1 X112.979 Y103.852 E6.98616
G1 X112.007 Y103.852 E7.07456
G1 X112.007 Y99.006 E7.51516
G1 X112.647 Y99.006 E7.57334
G1 X112.647 Y99.287 E7.59887
G1 X112.764 Y99.658 F7200.000
G1 E1.09887 F1500.00000
G92 E0
G1 X112.997 Y104.430 F7200.000
G1 E6.50000 F1500.00000
G1 F1800
G1 X111.937 Y104.430 E6.55887
G1 X112.493 Y103.539 F7200.000
G1 F1800
G1 X112.493 Y99.659 E6.71253
G1 E0.21253 F1500.00000
G92 E0
G1 X108.807 Y98.114 F7200.000
G1 E6.50000 F1500.00000
G1 F1800
G1 X107.012 Y98.114 E6.59273
G1 X106.386 Y98.633 F7200.000
G1 F1800
G1 X106.386 Y98.973 E6.59984
G1 F1800
G1 X106.342 Y99.061 E6.60313
G1 F1800
G1 X106.298 Y99.148 E6.60765
G1 F1800
G1 X106.260 Y99.208 E6.61174
G1 X106.260 Y102.816 E6.81898
G1 Z0.550 F7200.000
G1 E0.31898 F1500.00000
G92 E0
G1 X96.734 Y105.952 F7200.000
G1 E6.50000 F1500.00000
G1 F900
G1 X96.734 Y107.108 E6.53815
G1 X95.469 Y107.108 E6.57991
G1 X95.469 Y105.952 E6.61806
G1 X96.674 Y105.952 E6.65783
G1 X97.122 Y105.855 F7200.000
G1 X97.191 Y105.495 F7200.000
G1 F3600
G1 X94.787 Y105.495 E6.76116
G1 X94.787 Y101.790 E6.92048
G1 X93.998 Y101.790 E6.95442
G1 X93.998 Y101.048 E6.98629
G1 X93.011 Y101.048 E7.02871
G1 X93.011 Y100.289 E7.06138
G1 X91.802 Y100.289 E7.11336
G1 X91.802 Y99.492 E7.14760
G1 X91.082 Y99.500 E7.17856
G1 X91.082 Y98.823 E7.20766
G1 X88.224 Y98.823 E7.33055
G1 X88.224 Y99.502 E7.35973
G1 X87.348 Y99.502 E7.39740
G1 X87.348 Y98.697 E7.43199
G1 X88.078 Y98.697 E7.46338
G1 X88.078 Y98.011 E7.49289
G1 X88.867 Y98.011 E7.52683
G1 X88.867 Y96.921 E7.57368
G1 X89.657 Y96.921 E7.60762
G1 X89.657 Y96.285 E7.63497
G1 X90.249 Y96.285 E7.66042
G1 X90.249 Y95.540 E7.69246
G1 X91.038 Y95.540 E7.72640
G1 X91.038 Y94.750 E7.76033
G1 X91.855 Y94.750 E7.79544
G1 X91.855 Y95.540 E7.82938
G1 X93.998 Y95.540 E7.92154
G1 X93.998 Y94.750 E7.95548
G1 X94.420 Y94.750 E7.97361
G1 X94.420 Y96.285 E8.03959
G1 X95.012 Y96.285 E8.06504
G1 X95.012 Y96.921 E8.09239
G1 X95.801 Y96.921 E8.12633
G1 X95.801 Y98.273 E8.18446
G1 X96.591 Y98.273 E8.21839
G1 X96.591 Y103.144 E8.42782
G1 X97.330 Y103.144 E8.45963
G1 X97.333 Y104.626 E8.52336
G1 X101.033 Y104.626 E8.68242
G1 X101.033 Y106.679 E8.77070
G1 X100.303 Y106.679 E8.80207
G1 X100.303 Y107.420 E8.83393
G1 X97.191 Y107.420 E8.96775
G1 X97.191 Y105.555 E9.04794
G1 X97.789 Y104.169 F7200.000
G1 F1800
G1 X101.490 Y104.169 E9.17012
G1 X101.490 Y107.136 E9.26809
G1 X100.760 Y107.136 E9.29218
G1 X100.760 Y107.877 E9.31665
G1 X95.317 Y107.877 E9.49637
G1 X95.317 Y107.136 E9.52084
G1 X94.330 Y107.136 E9.55342
G1 X94.330 Y102.247 E9.71485
G1 X93.541 Y102.247 E9.74092
G1 X93.541 Y101.505 E9.76539
G1 X92.554 Y101.505 E9.79797
G1 X92.554 Y100.746 E9.82305
G1 X91.345 Y100.746 E9.86298
G1 X91.345 Y99.954 E9.88911
G1 X90.625 Y99.961 E9.91289
G1 X90.625 Y99.280 E9.93539
G1 X88.681 Y99.280 E9.99958
G1 X88.681 Y99.959 E10.02199
G1 X87.892 Y99.959 E10.04805
G1 X87.892 Y100.760 E10.07450
G1 X87.181 Y100.760 E10.09797
G1 X87.181 Y102.240 E10.14683
G1 X86.891 Y102.240 E10.15641
G1 X86.891 Y98.240 E10.28848
G1 X87.621 Y98.240 E10.31259
G1 X87.621 Y97.554 E10.33525
G1 X88.410 Y97.554 E10.36131
G1 X88.410 Y96.464 E10.39729
G1 X89.200 Y96.464 E10.42335
G1 X89.200 Y95.828 E10.44435
G1 X89.792 Y95.828 E10.46390
G1 X89.792 Y95.083 E10.48850
G1 X90.581 Y95.083 E10.51457
G1 X90.581 Y92.123 E10.61230
G1 X90.832 Y92.123 E10.62057
G1 X90.832 Y93.701 E10.67270
G1 X91.522 Y93.701 E10.69550
G1 X91.522 Y94.293 E10.71505
G1 X92.312 Y94.293 E10.74111
G1 X92.312 Y95.083 E10.76717
G1 X93.541 Y95.083 E10.80776
G1 X93.541 Y94.293 E10.83382
G1 X94.330 Y94.293 E10.85988
G1 X94.330 Y92.123 E10.93155
G1 X94.877 Y92.123 E10.94960
G1 X94.877 Y95.828 E11.07193
G1 X95.469 Y95.828 E11.09148
G1 X95.469 Y96.464 E11.11248
G1 X96.258 Y96.464 E11.13854
G1 X96.258 Y97.816 E11.18318
G1 X97.048 Y97.816 E11.20924
G1 X97.048 Y100.396 E11.29444
G1 X98.493 Y100.396 E11.34215
G1 X98.493 Y100.746 E11.35368
G1 X97.048 Y100.746 E11.40139
G1 X97.048 Y102.687 E11.46548
G1 X100.008 Y102.687 E11.56321
G1 X100.008 Y102.988 E11.57315
G1 X97.787 Y102.988 E11.64646
G1 X97.789 Y104.109 E11.68348
G1 X97.648 Y104.543 F7200.000
G1 X97.507 Y106.702 F7200.000
G1 F1200
G1 X97.909 Y107.104 E11.70863
G1 X98.670 Y107.104 E11.74229
G1 X97.507 Y105.941 E11.81505
G1 X97.507 Y105.179 E11.84870
G1 X99.432 Y107.104 E11.96906
G1 X99.987 Y107.104 E11.99362
G1 X99.987 Y106.899 E12.00272
G1 X98.031 Y104.942 E12.12505
G1 X98.792 Y104.942 E12.15871
G1 X100.213 Y106.363 E12.24757
G1 X100.717 Y106.363 E12.26984
G1 X100.717 Y106.106 E12.28122
G1 X99.553 Y104.942 E12.35398
G1 X100.314 Y104.942 E12.38764
G1 X100.717 Y105.344 E12.41279
G1 X95.103 Y104.777 F7200.000
G1 F1200
G1 X95.506 Y105.179 E12.43795
G1 X96.258 Y105.179 E12.47119
G1 X95.103 Y104.025 E12.54336
G1 X95.103 Y103.273 E12.57661
G1 X97.018 Y105.179 E12.69605
G1 X97.016 Y104.434 E12.72899
G1 X96.444 Y103.862 E12.76476
G1 X96.275 Y103.862 E12.77226
G1 X96.275 Y103.692 E12.77977
G1 X95.103 Y102.521 E12.85300
G1 X95.103 Y101.769 E12.88624
G1 X96.275 Y102.940 E12.95947
G1 X96.275 Y102.188 E12.99272
G1 X90.565 Y96.479 E13.34972
G1 X90.565 Y95.856 E13.37726
G1 X90.579 Y95.856 E13.37787
G1 X90.579 Y96.114 E13.38930
G1 X90.952 Y96.114 E13.40583
G1 X96.275 Y101.436 E13.73859
G1 X96.275 Y100.685 E13.77184
G1 X91.704 Y96.114 E14.05759
G1 X91.912 Y96.114 E14.06677
G1 X91.912 Y95.856 E14.07820
G1 X92.198 Y95.856 E14.09083
G1 X96.275 Y99.933 E14.34574
G1 X96.275 Y99.181 E14.37898
G1 X96.085 Y98.991 E14.39083
G1 X95.485 Y98.991 E14.41735
G1 X95.485 Y98.391 E14.44387
G1 X94.331 Y97.237 E14.51604
G1 X95.083 Y97.237 E14.54928
G1 X95.485 Y97.639 E14.57444
G1 X94.733 Y97.639 F7200.000
G1 F1200
G1 X94.696 Y97.639 E14.57608
G1 X94.696 Y97.602 E14.57773
G1 X92.950 Y95.856 E14.68691
G1 X93.702 Y95.856 E14.72016
G1 X94.104 Y96.258 E14.74531
G1 X92.506 Y99.171 F7200.000
G1 F1200
G1 X89.973 Y96.638 E14.90367
G1 X89.973 Y97.237 E14.93014
G1 X89.819 Y97.237 E14.93692
G1 X91.089 Y98.507 E15.01632
G1 X90.337 Y98.507 E15.04956
G1 X89.442 Y97.612 E15.10554
G1 X89.442 Y97.551 E15.10822
G1 X89.381 Y97.551 E15.11089
G1 X89.183 Y97.353 E15.12327
G1 X92.520 Y99.938 F7200.000
G1 F1200
G1 X92.520 Y99.973 E15.12480
G1 X92.555 Y99.973 E15.12633
G1 X92.118 Y99.536 E15.15364
G1 X92.118 Y98.784 E15.18688
G1 X92.905 Y99.570 E15.23605
G1 X93.327 Y99.570 E15.25474
G1 X93.327 Y99.993 E15.27343
G1 X93.664 Y100.330 E15.29450
G1 X94.314 Y100.330 E15.32322
G1 X94.314 Y100.980 E15.35194
G1 X94.808 Y101.474 E15.38282
G1 X89.126 Y98.417 F7200.000
G1 F1200
G1 X88.337 Y98.417 E15.39938
G1 X91.446 Y95.798 F7200.000
G1 F1200
G1 X91.446 Y95.009 E15.41621
G1 E8.91621 F1500.00000
G92 E0
G1 X94.604 Y94.522 F7200.000
G1 E6.50000 F1500.00000
G1 F1200
G1 X94.604 Y92.351 E6.50842
G1 X95.546 Y107.493 F7200.000
G1 F1200
G1 X96.962 Y107.493 E6.54018
G1 E0.04018 F1500.00000
G92 E0
G1 X109.165 Y106.805 F7200.000
G1 E6.50000 F1500.00000
G1 F900
G1 X108.821 Y106.799 E6.51478
G1 X108.821 Y98.315 E6.87957
G1 X107.027 Y98.315 E6.95673
G1 X107.027 Y97.914 E6.97397
G1 X108.821 Y97.914 E7.05113
G1 X108.821 Y92.737 E7.27370
G1 X109.910 Y92.737 E7.32050
G1 X109.910 Y106.794 E7.92485
G1 X109.566 Y106.788 E7.93963
G1 X109.566 Y107.389 E7.96550
G1 X109.165 Y107.388 E7.98276
G1 X109.165 Y106.865 E8.00525
G1 E1.50525 F1500.00000
G92 E0
G1 X112.334 Y103.524 F7200.000
G1 E6.50000 F1500.00000
G1 F900
G1 X112.334 Y99.674 E6.66556
G1 X112.652 Y99.674 E6.67923
G1 X112.652 Y103.524 E6.84479
G1 X112.394 Y103.524 E6.85588
G1 E0.35588 F1500.00000
G92 E0
