;FLAVOR:Marlin
;TIME:1144
;Filament used: 0.634148m
;Layer height: 0.2
;MINX:82.017
;MINY:82.012
;MINZ:0.2
;MAXX:137.988
;MAXY:137.987
;MAXZ:2
;Generated with Creality Slicer 4.8.2-291
M140 S60
M105
M190 S60
M104 S200
M105
M109 S200
M82 ;absolute extrusion mode

G28 ;Home

G92 E0 ;Reset Extruder
G1 Z2.0 F3000 ;Move Z Axis up
G1 X10.1 Y20 Z0.28 F5000.0 ;Move to start position
G1 X10.1 Y200.0 Z0.28 F1500.0 E15 ;Draw the first line
G1 X10.4 Y200.0 Z0.28 F5000.0 ;Move to side a little
G1 X10.4 Y20 Z0.28 F1500.0 E30 ;Draw the second line
G92 E0 ;Reset Extruder
G1 Z2.0 F3000 ;Move Z Axis up

G92 E0
G92 E0
G1 F1500 E-4
;LAYER_COUNT:10
;LAYER:0
M107
G0 F6000 X90.147 Y90.274 Z0.2
;TYPE:SKIRT
G1 F1500 E0
G1 F1200 X90.415 Y90.009 E0.01254
G1 X90.895 Y89.55 E0.03462
G1 X91.174 Y89.292 E0.04726
G1 X91.554 Y88.953 E0.0642
G1 X91.827 Y88.717 E0.0762
G1 X92.33 Y88.297 E0.098
G1 X92.642 Y88.046 E0.11132
G1 X93.064 Y87.719 E0.12907
G1 X93.317 Y87.529 E0.1396
G1 X93.665 Y87.275 E0.15393
G1 X93.97 Y87.06 E0.16634
G1 X94.559 Y86.66 E0.19002
G1 X94.872 Y86.455 E0.20246
G1 X95.351 Y86.153 E0.2213
G1 X95.698 Y85.943 E0.23479
G1 X96.172 Y85.668 E0.25301
G1 X96.469 Y85.502 E0.26433
G1 X97.001 Y85.215 E0.28444
G1 X97.352 Y85.034 E0.29757
G1 X97.767 Y84.829 E0.31297
G1 X98.086 Y84.677 E0.32472
G1 X98.803 Y84.351 E0.35092
G1 X99.145 Y84.203 E0.36331
G1 X99.396 Y84.099 E0.37235
G1 X99.707 Y83.976 E0.38347
G1 X100.427 Y83.703 E0.40908
G1 X100.816 Y83.563 E0.42283
G1 X101.294 Y83.402 E0.43961
G1 X101.629 Y83.296 E0.45129
G1 X102.249 Y83.109 E0.47283
G1 X102.621 Y83.003 E0.4857
G1 X103.118 Y82.872 E0.50279
G1 X103.467 Y82.786 E0.51475
G1 X104.013 Y82.661 E0.53338
G1 X104.369 Y82.586 E0.54548
G1 X104.976 Y82.468 E0.56605
G1 X105.346 Y82.403 E0.57854
G1 X105.855 Y82.322 E0.59568
G1 X106.226 Y82.269 E0.60815
G1 X106.869 Y82.189 E0.6297
G1 X107.227 Y82.151 E0.64167
G1 X107.698 Y82.108 E0.6574
G1 X108.068 Y82.08 E0.66974
G1 X108.713 Y82.043 E0.69123
G1 X109.071 Y82.028 E0.70315
G1 X109.638 Y82.014 E0.72201
G1 X110.025 Y82.012 E0.73489
G1 X110.504 Y82.017 E0.75082
G1 X110.867 Y82.026 E0.7629
G1 X111.58 Y82.057 E0.78663
G1 X111.965 Y82.081 E0.79946
G1 X112.397 Y82.115 E0.81388
G1 X112.752 Y82.149 E0.82574
G1 X113.398 Y82.221 E0.84736
G1 X113.758 Y82.267 E0.85943
G1 X114.358 Y82.354 E0.87959
G1 X114.732 Y82.415 E0.8922
G1 X115.148 Y82.49 E0.90625
G1 X115.498 Y82.559 E0.91812
G1 X116.227 Y82.715 E0.94292
G1 X116.609 Y82.803 E0.95595
G1 X117.086 Y82.923 E0.97231
G1 X117.43 Y83.016 E0.98417
G1 X117.926 Y83.158 E1.00132
G1 X118.28 Y83.266 E1.01363
G1 X118.93 Y83.476 E1.03635
G1 X119.276 Y83.594 E1.04851
G1 X119.723 Y83.755 E1.06432
G1 X120.089 Y83.894 E1.07734
G1 X120.665 Y84.125 E1.09798
G1 X120.983 Y84.259 E1.10946
G1 X121.506 Y84.488 E1.12844
G1 X121.845 Y84.643 E1.14084
G1 X122.342 Y84.881 E1.15917
G1 X122.667 Y85.043 E1.17125
G1 X123.14 Y85.289 E1.18898
G1 X123.483 Y85.476 E1.20197
G1 X124.08 Y85.814 E1.22479
G1 X124.382 Y85.991 E1.23643
G1 X124.786 Y86.237 E1.25217
G1 X125.102 Y86.436 E1.26459
G1 X125.626 Y86.78 E1.28544
G1 X125.937 Y86.992 E1.29795
G1 X126.346 Y87.281 E1.31461
G1 X126.648 Y87.503 E1.32708
G1 X127.154 Y87.887 E1.3482
G1 X127.431 Y88.104 E1.35991
G1 X127.885 Y88.472 E1.37935
G1 X128.18 Y88.72 E1.39216
G1 X128.512 Y89.009 E1.4068
G1 X128.76 Y89.232 E1.4179
G1 X129.268 Y89.702 E1.44092
G1 X129.576 Y89.998 E1.45512
G1 X129.996 Y90.418 E1.47488
G1 X130.214 Y90.642 E1.48528
G1 X130.505 Y90.95 E1.49937
G1 X130.773 Y91.244 E1.5126
G1 X131.221 Y91.754 E1.53518
G1 X131.449 Y92.022 E1.54688
G1 X131.822 Y92.475 E1.5664
G1 X132.067 Y92.784 E1.57951
G1 X132.376 Y93.188 E1.59643
G1 X132.595 Y93.484 E1.60868
G1 X132.968 Y94.007 E1.63004
G1 X133.178 Y94.312 E1.64236
G1 X133.466 Y94.746 E1.65968
G1 X133.66 Y95.049 E1.67165
G1 X133.957 Y95.53 E1.69045
G1 X134.145 Y95.847 E1.70271
G1 X134.427 Y96.34 E1.7216
G1 X134.612 Y96.677 E1.73439
G1 X134.919 Y97.26 E1.7563
G1 X135.069 Y97.555 E1.76731
G1 X135.263 Y97.952 E1.78201
G1 X135.425 Y98.299 E1.79474
G1 X135.662 Y98.83 E1.81408
G1 X135.811 Y99.181 E1.82677
G1 X136.068 Y99.815 E1.84952
G1 X136.208 Y100.178 E1.86246
G1 X136.39 Y100.677 E1.88013
G1 X136.508 Y101.019 E1.89216
G1 X136.669 Y101.51 E1.90935
G1 X136.771 Y101.838 E1.92077
G1 X136.924 Y102.359 E1.93883
G1 X137.028 Y102.737 E1.95187
G1 X137.197 Y103.399 E1.97459
G1 X137.274 Y103.718 E1.98551
G1 X137.37 Y104.147 E2.00013
G1 X137.451 Y104.547 E2.0137
G1 X137.588 Y105.287 E2.03873
G1 X137.649 Y105.646 E2.05085
G1 X137.707 Y106.03 E2.06376
G1 X137.756 Y106.397 E2.07608
G1 X137.838 Y107.099 E2.09959
G1 X137.876 Y107.48 E2.11232
G1 X137.912 Y107.921 E2.12704
G1 X137.935 Y108.279 E2.13897
G1 X137.968 Y108.954 E2.16145
G1 X137.98 Y109.326 E2.17383
G1 X137.988 Y109.858 E2.19152
G1 X137.987 Y110.224 E2.20369
G1 X137.977 Y110.771 E2.22189
G1 X137.964 Y111.138 E2.23411
G1 X137.93 Y111.795 E2.25599
G1 X137.905 Y112.164 E2.26829
G1 X137.869 Y112.585 E2.28234
G1 X137.831 Y112.955 E2.29471
G1 X137.744 Y113.682 E2.31906
G1 X137.694 Y114.046 E2.33129
G1 X137.625 Y114.495 E2.34639
G1 X137.564 Y114.854 E2.35851
G1 X137.447 Y115.477 E2.37959
G1 X137.377 Y115.821 E2.39127
G1 X137.257 Y116.364 E2.40976
G1 X137.159 Y116.768 E2.42359
G1 X137.029 Y117.266 E2.44071
G1 X136.934 Y117.61 E2.45258
G1 X136.741 Y118.262 E2.47519
G1 X136.626 Y118.625 E2.48786
G1 X136.467 Y119.101 E2.50455
G1 X136.354 Y119.422 E2.51587
G1 X136.16 Y119.948 E2.53451
G1 X136.022 Y120.305 E2.54724
G1 X135.8 Y120.848 E2.56676
G1 X135.649 Y121.199 E2.57946
G1 X135.379 Y121.799 E2.60135
G1 X135.231 Y122.114 E2.61292
G1 X135.038 Y122.509 E2.62755
G1 X134.874 Y122.831 E2.63956
G1 X134.591 Y123.365 E2.65967
G1 X134.405 Y123.703 E2.6725
G1 X134.12 Y124.198 E2.69149
G1 X133.927 Y124.519 E2.70395
G1 X133.606 Y125.035 E2.72416
G1 X133.406 Y125.346 E2.73646
G1 X133.112 Y125.785 E2.75404
G1 X132.903 Y126.085 E2.7662
G1 X132.527 Y126.608 E2.78762
G1 X132.311 Y126.898 E2.79965
G1 X132.033 Y127.259 E2.8148
G1 X131.793 Y127.561 E2.82763
G1 X131.39 Y128.048 E2.84866
G1 X131.163 Y128.313 E2.86026
G1 X130.743 Y128.789 E2.88138
G1 X130.486 Y129.071 E2.89407
G1 X130.17 Y129.405 E2.90936
G1 X129.912 Y129.668 E2.92161
G1 X129.475 Y130.1 E2.94205
G1 X129.219 Y130.345 E2.95384
G1 X128.782 Y130.75 E2.97365
G1 X128.473 Y131.026 E2.98743
G1 X128.033 Y131.404 E3.00673
G1 X127.783 Y131.613 E3.01756
G1 X127.375 Y131.943 E3.03502
G1 X127.069 Y132.181 E3.04791
G1 X126.605 Y132.53 E3.06722
G1 X126.292 Y132.757 E3.08008
G1 X125.831 Y133.079 E3.09878
G1 X125.557 Y133.264 E3.10978
G1 X125.03 Y133.609 E3.13073
G1 X124.687 Y133.825 E3.14421
G1 X124.266 Y134.079 E3.16057
G1 X123.968 Y134.252 E3.17203
G1 X123.421 Y134.559 E3.19289
G1 X123.097 Y134.734 E3.20514
G1 X122.628 Y134.977 E3.22271
G1 X122.289 Y135.145 E3.23529
G1 X121.704 Y135.423 E3.25683
G1 X121.34 Y135.588 E3.27012
G1 X120.925 Y135.767 E3.28516
G1 X120.624 Y135.892 E3.296
G1 X120.029 Y136.128 E3.31729
G1 X119.683 Y136.258 E3.32958
G1 X119.175 Y136.44 E3.34753
G1 X118.794 Y136.569 E3.36091
G1 X118.161 Y136.77 E3.383
G1 X117.822 Y136.872 E3.39477
G1 X117.337 Y137.009 E3.41153
G1 X116.988 Y137.101 E3.42354
G1 X116.515 Y137.218 E3.43974
G1 X116.149 Y137.302 E3.45223
G1 X115.359 Y137.469 E3.47909
G1 X115.023 Y137.535 E3.49048
G1 X114.822 Y137.571 E3.49727
G1 X114.437 Y137.633 E3.51024
G1 X113.54 Y137.761 E3.54038
G1 X113.191 Y137.805 E3.55208
G1 X112.828 Y137.845 E3.56422
G1 X112.428 Y137.881 E3.57758
G1 X111.747 Y137.931 E3.60029
G1 X111.402 Y137.951 E3.61179
G1 X110.876 Y137.973 E3.6293
G1 X110.495 Y137.983 E3.64197
G1 X109.936 Y137.987 E3.66057
G1 X109.575 Y137.983 E3.67257
G1 X108.991 Y137.968 E3.692
G1 X108.59 Y137.951 E3.70535
G1 X107.931 Y137.91 E3.72731
G1 X107.584 Y137.883 E3.73889
G1 X107.116 Y137.839 E3.75452
G1 X106.738 Y137.796 E3.76718
G1 X106.157 Y137.721 E3.78666
G1 X105.812 Y137.671 E3.79826
G1 X105.242 Y137.579 E3.81746
G1 X104.889 Y137.516 E3.82939
G1 X104.32 Y137.405 E3.84867
G1 X103.908 Y137.317 E3.86268
G1 X103.351 Y137.186 E3.88171
G1 X103.024 Y137.104 E3.89292
G1 X102.475 Y136.957 E3.91183
G1 X102.132 Y136.859 E3.92369
G1 X101.63 Y136.707 E3.94114
G1 X101.251 Y136.585 E3.95438
G1 X100.65 Y136.379 E3.97551
G1 X100.309 Y136.255 E3.98758
G1 X99.746 Y136.041 E4.00761
G1 X99.391 Y135.899 E4.02033
G1 X99.008 Y135.738 E4.03415
G1 X98.693 Y135.6 E4.04559
G1 X98.007 Y135.286 E4.07068
G1 X97.655 Y135.118 E4.08365
G1 X97.274 Y134.927 E4.09783
G1 X96.965 Y134.765 E4.10943
G1 X96.365 Y134.44 E4.13213
G1 X96.018 Y134.244 E4.14538
G1 X95.638 Y134.02 E4.16005
G1 X95.349 Y133.844 E4.17131
G1 X94.749 Y133.465 E4.19491
G1 X94.434 Y133.258 E4.20745
G1 X94.008 Y132.968 E4.22459
G1 X93.688 Y132.742 E4.23762
G1 X93.214 Y132.394 E4.25718
G1 X92.935 Y132.182 E4.26883
G1 X92.536 Y131.869 E4.2857
G1 X92.256 Y131.642 E4.29769
G1 X91.791 Y131.252 E4.31787
G1 X91.501 Y131 E4.33065
G1 X91.061 Y130.604 E4.35034
G1 X90.81 Y130.371 E4.36173
G1 X90.404 Y129.982 E4.38043
G1 X90.123 Y129.703 E4.3936
G1 X89.785 Y129.355 E4.40974
G1 X89.533 Y129.087 E4.42197
G1 X89.038 Y128.542 E4.44646
G1 X88.795 Y128.265 E4.45872
G1 X88.514 Y127.934 E4.47316
G1 X88.279 Y127.647 E4.48549
G1 X87.882 Y127.146 E4.50676
G1 X87.656 Y126.851 E4.51912
G1 X87.325 Y126.403 E4.53764
G1 X87.115 Y126.109 E4.54966
G1 X86.82 Y125.681 E4.56695
G1 X86.622 Y125.383 E4.57885
G1 X86.252 Y124.807 E4.60162
G1 X86.036 Y124.456 E4.61532
G1 X85.795 Y124.048 E4.63109
G1 X85.629 Y123.758 E4.6422
G1 X85.285 Y123.133 E4.66593
G1 X85.091 Y122.765 E4.67976
G1 X84.97 Y122.524 E4.68873
G1 X84.834 Y122.242 E4.69915
G1 X84.495 Y121.516 E4.7258
G1 X84.338 Y121.164 E4.73862
G1 X84.12 Y120.651 E4.75715
G1 X83.979 Y120.303 E4.76964
G1 X83.781 Y119.789 E4.78796
G1 X83.656 Y119.446 E4.80011
G1 X83.477 Y118.931 E4.81824
G1 X83.354 Y118.558 E4.8313
G1 X83.176 Y117.98 E4.85142
G1 X83.086 Y117.67 E4.86215
G1 X82.946 Y117.163 E4.87965
G1 X82.845 Y116.771 E4.89311
G1 X82.714 Y116.218 E4.91201
G1 X82.637 Y115.868 E4.92393
G1 X82.505 Y115.217 E4.94603
G1 X82.436 Y114.843 E4.95868
G1 X82.351 Y114.334 E4.97584
G1 X82.298 Y113.977 E4.98784
G1 X82.235 Y113.505 E5.00368
G1 X82.192 Y113.136 E5.01604
G1 X82.113 Y112.34 E5.04264
G1 X82.083 Y111.986 E5.05446
G1 X82.064 Y111.701 E5.06396
G1 X82.046 Y111.34 E5.07598
G1 X82.023 Y110.658 E5.09868
G1 X82.017 Y110.27 E5.11158
G1 X82.018 Y109.616 E5.13334
G1 X82.025 Y109.234 E5.14604
G1 X82.046 Y108.655 E5.16531
G1 X82.065 Y108.292 E5.1774
G1 X82.093 Y107.889 E5.19084
G1 X82.125 Y107.526 E5.20296
G1 X82.205 Y106.748 E5.22897
G1 X82.251 Y106.367 E5.24174
G1 X82.311 Y105.933 E5.25631
G1 X82.363 Y105.591 E5.26782
G1 X82.454 Y105.057 E5.28583
G1 X82.525 Y104.681 E5.29856
G1 X82.66 Y104.027 E5.32077
G1 X82.739 Y103.674 E5.3328
G1 X82.866 Y103.147 E5.35083
G1 X82.963 Y102.773 E5.36368
G1 X83.112 Y102.238 E5.38215
G1 X83.213 Y101.897 E5.39398
G1 X83.378 Y101.371 E5.41232
G1 X83.497 Y101.013 E5.42486
G1 X83.714 Y100.396 E5.44662
G1 X83.835 Y100.069 E5.45822
G1 X83.987 Y99.677 E5.4722
G1 X84.128 Y99.33 E5.48466
G1 X84.402 Y98.689 E5.50784
G1 X84.571 Y98.315 E5.52149
G1 X84.827 Y97.773 E5.54143
G1 X84.961 Y97.499 E5.55157
G1 X85.15 Y97.126 E5.56548
G1 X85.333 Y96.78 E5.5785
G1 X85.676 Y96.159 E5.6021
G1 X85.882 Y95.802 E5.61581
G1 X86.144 Y95.367 E5.63269
G1 X86.308 Y95.104 E5.643
G1 X86.612 Y94.63 E5.66173
G1 X86.842 Y94.285 E5.67552
G1 X87.183 Y93.795 E5.69538
G1 X87.386 Y93.513 E5.70694
G1 X87.714 Y93.072 E5.72522
G1 X87.949 Y92.767 E5.73802
G1 X88.344 Y92.273 E5.75906
G1 X88.578 Y91.991 E5.77125
G1 X88.857 Y91.665 E5.78552
G1 X89.096 Y91.394 E5.79754
G1 X89.609 Y90.833 E5.82282
G1 X89.857 Y90.571 E5.83482
G1 X90.147 Y90.274 E5.84863
G0 F6000 X90.433 Y90.554
G1 F1200 X90.691 Y90.298 E5.86071
G1 X91.171 Y89.839 E5.8828
G1 X91.441 Y89.59 E5.89502
G1 X91.821 Y89.251 E5.91196
G1 X92.083 Y89.024 E5.92349
G1 X92.586 Y88.604 E5.94528
G1 X92.887 Y88.362 E5.95813
G1 X93.309 Y88.035 E5.97588
G1 X93.553 Y87.852 E5.98603
G1 X93.901 Y87.598 E6.00036
G1 X94.195 Y87.391 E6.01232
G1 X94.784 Y86.991 E6.036
G1 X95.086 Y86.793 E6.04801
G1 X95.565 Y86.491 E6.06684
G1 X95.899 Y86.289 E6.07983
G1 X96.373 Y86.014 E6.09805
G1 X96.659 Y85.854 E6.10895
G1 X97.191 Y85.567 E6.12906
G1 X97.529 Y85.392 E6.14172
G1 X97.944 Y85.187 E6.15711
G1 X98.252 Y85.042 E6.16843
G1 X98.969 Y84.716 E6.19463
G1 X99.298 Y84.572 E6.20658
G1 X99.549 Y84.468 E6.21561
G1 X99.849 Y84.35 E6.22633
G1 X100.569 Y84.077 E6.25195
G1 X100.943 Y83.943 E6.26516
G1 X101.421 Y83.782 E6.28193
G1 X101.744 Y83.679 E6.29321
G1 X102.364 Y83.492 E6.31475
G1 X102.723 Y83.39 E6.32716
G1 X103.22 Y83.259 E6.34426
G1 X103.556 Y83.176 E6.35577
G1 X104.102 Y83.051 E6.3744
G1 X104.445 Y82.979 E6.38606
G1 X105.052 Y82.861 E6.40662
G1 X105.409 Y82.798 E6.41868
G1 X105.918 Y82.717 E6.43582
G1 X106.275 Y82.666 E6.44782
G1 X106.918 Y82.586 E6.46937
G1 X107.263 Y82.549 E6.48091
G1 X107.734 Y82.506 E6.49664
G1 X108.091 Y82.479 E6.50855
G1 X108.736 Y82.442 E6.53003
G1 X109.081 Y82.428 E6.54152
G1 X109.648 Y82.414 E6.56038
G1 X110.021 Y82.412 E6.57279
G1 X110.5 Y82.417 E6.58872
G1 X110.849 Y82.426 E6.60033
G1 X111.562 Y82.457 E6.62407
G1 X111.934 Y82.48 E6.63647
G1 X112.366 Y82.514 E6.65088
G1 X112.708 Y82.546 E6.6623
G1 X113.354 Y82.618 E6.68392
G1 X113.701 Y82.663 E6.69556
G1 X114.301 Y82.75 E6.71573
G1 X114.661 Y82.808 E6.72785
G1 X115.077 Y82.883 E6.74191
G1 X115.414 Y82.95 E6.75334
G1 X116.143 Y83.106 E6.77814
G1 X116.511 Y83.191 E6.7907
G1 X116.988 Y83.311 E6.80706
G1 X117.319 Y83.4 E6.81846
G1 X117.815 Y83.542 E6.83562
G1 X118.157 Y83.646 E6.84751
G1 X118.807 Y83.856 E6.87023
G1 X119.14 Y83.97 E6.88193
G1 X119.587 Y84.131 E6.89774
G1 X119.941 Y84.266 E6.91034
G1 X120.517 Y84.497 E6.93098
G1 X120.823 Y84.625 E6.94201
G1 X121.346 Y84.854 E6.961
G1 X121.672 Y85.004 E6.97294
G1 X122.169 Y85.242 E6.99126
G1 X122.482 Y85.398 E7.00289
G1 X122.955 Y85.644 E7.02063
G1 X123.286 Y85.824 E7.03316
G1 X123.883 Y86.162 E7.05598
G1 X124.174 Y86.332 E7.06719
G1 X124.578 Y86.578 E7.08292
G1 X124.882 Y86.771 E7.09489
G1 X125.406 Y87.115 E7.11574
G1 X125.706 Y87.319 E7.12781
G1 X126.115 Y87.608 E7.14447
G1 X126.406 Y87.821 E7.15646
G1 X126.912 Y88.205 E7.17759
G1 X127.179 Y88.414 E7.18887
G1 X127.633 Y88.782 E7.2083
G1 X127.918 Y89.022 E7.2207
G1 X128.25 Y89.311 E7.23534
G1 X128.489 Y89.525 E7.24601
G1 X128.997 Y89.995 E7.26902
G1 X129.293 Y90.281 E7.28271
G1 X129.713 Y90.701 E7.30247
G1 X129.923 Y90.916 E7.31247
G1 X130.214 Y91.224 E7.32656
G1 X130.473 Y91.508 E7.33934
G1 X130.921 Y92.018 E7.36192
G1 X131.14 Y92.276 E7.37318
G1 X131.513 Y92.729 E7.39269
G1 X131.75 Y93.027 E7.40536
G1 X132.059 Y93.431 E7.42227
G1 X132.269 Y93.716 E7.43405
G1 X132.642 Y94.239 E7.45541
G1 X132.844 Y94.533 E7.46728
G1 X133.132 Y94.967 E7.4846
G1 X133.319 Y95.259 E7.49614
G1 X133.616 Y95.74 E7.51494
G1 X133.798 Y96.046 E7.52678
G1 X134.08 Y96.539 E7.54567
G1 X134.258 Y96.863 E7.55797
G1 X134.565 Y97.446 E7.57988
G1 X134.71 Y97.731 E7.59052
G1 X134.904 Y98.128 E7.60521
G1 X135.06 Y98.462 E7.61747
G1 X135.297 Y98.993 E7.63681
G1 X135.441 Y99.331 E7.64903
G1 X135.698 Y99.965 E7.67179
G1 X135.832 Y100.315 E7.68425
G1 X136.014 Y100.814 E7.70192
G1 X136.128 Y101.143 E7.7135
G1 X136.289 Y101.634 E7.73068
G1 X136.388 Y101.95 E7.7417
G1 X136.541 Y102.471 E7.75976
G1 X136.641 Y102.836 E7.77235
G1 X136.81 Y103.498 E7.79507
G1 X136.883 Y103.805 E7.80557
G1 X136.979 Y104.234 E7.82019
G1 X137.058 Y104.619 E7.83326
G1 X137.195 Y105.359 E7.85829
G1 X137.253 Y105.706 E7.86999
G1 X137.311 Y106.09 E7.88291
G1 X137.358 Y106.443 E7.89475
G1 X137.44 Y107.145 E7.91826
G1 X137.477 Y107.513 E7.93056
G1 X137.513 Y107.954 E7.94528
G1 X137.535 Y108.298 E7.95674
G1 X137.568 Y108.973 E7.97922
G1 X137.58 Y109.332 E7.99117
G1 X137.588 Y109.864 E8.00886
G1 X137.587 Y110.217 E8.0206
G1 X137.577 Y110.764 E8.0388
G1 X137.565 Y111.118 E8.05058
G1 X137.531 Y111.775 E8.07246
G1 X137.506 Y112.13 E8.0843
G1 X137.47 Y112.551 E8.09835
G1 X137.434 Y112.908 E8.11029
G1 X137.347 Y113.635 E8.13464
G1 X137.299 Y113.985 E8.14639
G1 X137.23 Y114.434 E8.1615
G1 X137.171 Y114.78 E8.17317
G1 X137.054 Y115.403 E8.19426
G1 X136.986 Y115.734 E8.2055
G1 X136.866 Y116.277 E8.22399
