; generated by PrusaSlicer 2.9.2 on 2025-04-21 at 14:06:53 UTC

; 

; external perimeters extrusion width = 0.45mm
; perimeters extrusion width = 0.45mm
; infill extrusion width = 0.45mm
; solid infill extrusion width = 0.45mm
; top infill extrusion width = 0.40mm
; first layer extrusion width = 0.70mm

;TYPE:Custom
G28
M140 S60
M104 S200
M190 S60
M109 S200
G1 Z0.2 F3000
G21 ; set units to millimeters
G90 ; use absolute coordinates
M82 ; use absolute distances for extrusion
G92 E0
; Filament gcode
M107
;LAYER_CHANGE
;Z:0.35
;HEIGHT:0.35
G1 E-6.5 F1500
G92 E0
G1 Z.35 F7200
G1 X86.434 Y86.961
G1 E6.5 F1500
;TYPE:Skirt/Brim
;WIDTH:0.7
G1 F1800
G1 X88.405 Y85.901 E6.7035
G1 X90.361 Y85.59 E6.88359
G1 X110.654 Y85.748 E8.72888
G1 X112.852 Y86.168 E8.93236
G1 X114.766 Y87.329 E9.13591
G1 X116.458 Y89.74 E9.40374
G1 X119.199 Y96.676 E10.08189
G1 X119.641 Y98.997 E10.29673
G1 X119.641 Y104.202 E10.77002
G1 X119.245 Y106.404 E10.97346
G1 X118.434 Y107.914 E11.12931
G1 X115.155 Y112.034 E11.60811
G1 X113.463 Y113.499 E11.81162
G1 X110.263 Y114.381 E12.11344
G1 X95.097 Y114.41 E13.49248
G1 X92.894 Y114.013 E13.69602
G1 X91.587 Y113.344 E13.82953
G1 X83.161 Y107.706 E14.7514
G1 X81.551 Y106.152 E14.95487
G1 X80.584 Y104.133 E15.15843
G1 X80.358 Y102.46 E15.31194
G1 X80.358 Y98.02 E15.71567
G1 X80.755 Y95.817 E15.91921
G1 X81.266 Y94.759 E16.02605
G1 X84.956 Y88.642 E16.67563
G1 X86.394 Y87.006 E16.87369
G1 E10.37369 F1500
G92 E0
G92 E0
G1 X95.544 Y107.033 F7200
G1 E6.5 F1500
;TYPE:External perimeter
;WIDTH:0.562792
G1 F1800
G1 X95.511 Y106.996 E6.50352
;WIDTH:0.523016
G1 X95.447 Y106.925 E6.50975
;WIDTH:0.532332
G1 X95.423 Y106.874 E6.5135
;WIDTH:0.581424
G1 X95.398 Y106.823 E6.51768
;WIDTH:0.630516
G1 X95.374 Y106.772 E6.52224
;WIDTH:0.679608
G1 X95.349 Y106.72 E6.52732
;WIDTH:0.7287
G1 X95.325 Y106.669 E6.53268
;WIDTH:0.777792
G1 X95.3 Y106.618 E6.53849
;WIDTH:0.826884
G1 X95.276 Y106.567 E6.54466
G1 X95.276 Y106.135 E6.59192
G1 X95.338 Y106.051 E6.60334
;WIDTH:0.78459
G1 X95.401 Y105.968 E6.6141
;WIDTH:0.742295
G1 X95.464 Y105.885 E6.62422
;WIDTH:0.7
G1 X95.651 Y105.822 E6.64216
G1 X96.551 Y105.822 E6.724
G1 X96.746 Y105.89 E6.74278
G1 X96.839 Y106.012 E6.75673
G1 X96.864 Y106.925 E6.83978
G1 X96.732 Y107.066 E6.85734
;WIDTH:0.673321
G1 X96.601 Y107.207 E6.87409
;WIDTH:0.646643
G1 X95.702 Y107.209 E6.94886
;WIDTH:0.642345
G1 X95.638 Y107.138 E6.95675
;WIDTH:0.602568
G1 X95.584 Y107.078 E6.96295
G1 X95.367 Y106.741 F7200
G1 E.46295 F1500
G92 E0
G1 X95.393 Y92.199 F7200
G1 E6.5 F1500
;WIDTH:0.595913
G1 F1800
G1 X95.014 Y92.201 E6.52872
G1 E.02872 F1500
G92 E0
G1 X91.545 Y92.199 F7200
G1 E6.5 F1500
;WIDTH:0.591999
G1 F1800
G1 X91.014 Y92.199 E6.53994
;WIDTH:0.630141
G1 X90.944 Y92.218 E6.5458
;WIDTH:0.668284
G1 X90.874 Y92.237 E6.55206
;WIDTH:0.706426
G1 X90.804 Y92.256 E6.55872
;WIDTH:0.744569
G1 X90.733 Y92.275 E6.56588
G1 X90.72 Y92.366 E6.57483
;WIDTH:0.717617
G1 X90.706 Y92.457 E6.58344
;WIDTH:0.690665
G1 X90.706 Y93.519 E6.67856
;WIDTH:0.695329
G1 X90.709 Y93.572 E6.68335
G1 X90.83 Y93.191 F7200
G1 E.18335 F1500
G92 E0
G1 X97.011 Y103.368 F7200
G1 E6.5 F1500
;TYPE:Perimeter
;WIDTH:0.7
G1 F1800
G1 X97.033 Y103.376 E6.50213
G1 X97.034 Y103.988 E6.55778
G1 X97.109 Y104.354 E6.59175
;WIDTH:0.742776
G1 X97.375 Y104.737 E6.63705
G1 X97.514 Y104.829 E6.65324
G1 X97.972 Y104.924 E6.69868
;WIDTH:0.7
G1 X100.735 Y104.924 E6.94992
G1 X100.735 Y105.843 E7.03348
G1 X100.735 Y106.452 E7.08886
G1 X100.374 Y106.574 E7.12351
G1 X100.219 Y106.722 E7.143
G1 X100.076 Y107.122 E7.18163
G1 X97.323 Y107.122 E7.43196
G1 X97.489 Y106.925 E7.45538
G1 X97.489 Y106.135 E7.52721
G1 X97.414 Y105.768 E7.56127
;WIDTH:0.742777
G1 X97.148 Y105.384 E7.60665
G1 X97.008 Y105.292 E7.62293
G1 X96.551 Y105.197 E7.66828
;WIDTH:0.7
G1 X95.651 Y105.197 E7.75012
G1 X95.088 Y105.383 E7.80403
G1 X95.085 Y103.26 E7.99707
;WIDTH:0.743285
G1 X95.107 Y103.191 E8.00411
;WIDTH:0.786571
G1 X95.129 Y103.121 E8.01171
;WIDTH:0.829857
G1 X95.15 Y103.051 E8.01974
;WIDTH:0.873143
G1 X95.172 Y102.982 E8.02815
;WIDTH:0.916429
G1 X95.193 Y102.912 E8.0371
;WIDTH:0.959715
G1 X95.215 Y102.842 E8.04655
;WIDTH:1.003
G1 X95.237 Y102.773 E8.05633
G1 X95.231 Y102.429 E8.10278
;WIDTH:0.991324
G1 X95.189 Y102.357 E8.11389
;WIDTH:0.94277
G1 X95.147 Y102.286 E8.12431
;WIDTH:0.894216
G1 X95.106 Y102.214 E8.13419
;WIDTH:0.845662
G1 X95.064 Y102.142 E8.14354
;WIDTH:0.797108
G1 X95.022 Y102.07 E8.1523
;WIDTH:0.748554
G1 X94.98 Y101.998 E8.16047
;WIDTH:0.7
G1 X94.726 Y101.691 E8.1967
G1 X94.593 Y101.604 E8.21115
G1 X94.265 Y101.513 E8.2421
G1 X94.154 Y101.192 E8.27298
G1 X93.837 Y100.882 E8.3133
G1 X93.636 Y100.792 E8.33333
G1 X93.286 Y100.751 E8.36537
G1 X93.278 Y100.689 E8.37105
G1 X93.104 Y100.343 E8.40627
G1 X92.79 Y100.089 E8.44299
G1 X92.586 Y100.016 E8.46269
G1 X92.069 Y99.991 E8.50976
G1 X92.021 Y99.762 E8.53104
G1 X91.912 Y99.576 E8.55064
G1 X91.642 Y99.333 E8.58367
G1 X91.338 Y99.231 E8.61283
G1 X91.252 Y98.99 E8.6361
G1 X91.019 Y98.723 E8.66832
G1 X90.75 Y98.577 E8.69615
G1 X90.443 Y98.525 E8.72446
G1 X89.381 Y98.543 E8.82104
;WIDTH:0.66404
G1 X88.864 Y98.561 E8.86537
;WIDTH:0.628081
G1 X88.707 Y98.611 E8.87863
;WIDTH:0.587196
G1 X88.551 Y98.661 E8.89084
;WIDTH:0.546312
G1 X88.443 Y98.751 E8.90048
;WIDTH:0.500434
G1 X88.336 Y98.842 E8.90917
;WIDTH:0.498836
G1 X88.198 Y98.999 E8.92206
;WIDTH:0.543117
G1 X88.061 Y99.156 E8.93625
G1 X88.027 Y99.287 E8.94547
G1 X87.892 Y99.302 E8.95472
G1 X87.566 Y99.689 E8.98918
;WIDTH:0.540311
G1 X87.566 Y98.893 E9.04306
G1 X87.722 Y98.867 E9.05377
G1 X87.844 Y98.772 E9.06424
;WIDTH:0.497433
G1 X87.967 Y98.678 E9.07375
;WIDTH:0.500434
G1 X88.106 Y98.518 E9.08687
;WIDTH:0.546312
G1 X88.245 Y98.359 E9.10135
G1 X88.278 Y98.226 E9.11075
;WIDTH:0.587196
G1 X88.504 Y98.173 E9.12805
;WIDTH:0.628081
G1 X88.73 Y98.12 E9.14673
;WIDTH:0.66404
G1 X88.936 Y97.849 E9.1759
;WIDTH:0.7
G1 X89.142 Y97.579 E9.20678
G1 X89.165 Y97.195 E9.24176
G1 X89.426 Y97.125 E9.26633
G1 X89.717 Y96.905 E9.2995
G1 X89.82 Y96.766 E9.31523
G1 X89.905 Y96.514 E9.33941
G1 X90.15 Y96.411 E9.36358
G1 X90.403 Y96.144 E9.39703
G1 X90.516 Y95.815 E9.42866
G1 X90.739 Y95.774 E9.44928
G1 X91.051 Y95.573 E9.48303
G1 X91.309 Y95.125 E9.53004
G1 X91.328 Y94.963 E9.54487
G1 X91.573 Y95.032 E9.56801
G1 X91.584 Y95.125 E9.57653
G1 X91.841 Y95.573 E9.62349
G1 X92.042 Y95.721 E9.64619
G1 X92.323 Y95.822 E9.67334
G1 X92.725 Y95.838 E9.70992
G1 X93.564 Y95.815 E9.78624
G1 X93.994 Y95.589 E9.83041
G1 X94.046 Y95.454 E9.84356
;WIDTH:0.659774
G1 X94.098 Y95.319 E9.85587
;WIDTH:0.619549
G1 X94.15 Y95.184 E9.86733
;WIDTH:0.579324
G1 X94.203 Y95.048 E9.87804
G1 X94.182 Y95.198 E9.88915
;WIDTH:0.619549
G1 X94.162 Y95.347 E9.90106
;WIDTH:0.659774
G1 X94.142 Y95.496 E9.91385
;WIDTH:0.7
G1 X94.122 Y95.645 E9.92752
G1 X94.248 Y96.114 E9.97168
G1 X94.502 Y96.399 E10.00639
G1 X94.758 Y96.519 E10.0321
G1 X94.777 Y96.62 E10.04144
G1 X94.919 Y96.866 E10.06727
G1 X95.191 Y97.098 E10.09978
G1 X95.503 Y97.18 E10.12911
G1 X95.516 Y97.787 E10.18432
G1 X95.601 Y98.049 E10.20937
G1 X95.792 Y98.31 E10.23878
G1 X96.293 Y98.511 E10.28787
G1 X96.306 Y100.372 E10.45709
G1 X96.37 Y100.571 E10.4761
G1 X96.344 Y100.624 E10.48147
G1 X96.293 Y100.928 E10.5095
G1 X96.293 Y101.679 E10.57779
;WIDTH:0.748554
G1 X96.269 Y101.804 E10.59026
;WIDTH:0.797108
G1 X96.244 Y101.929 E10.60365
;WIDTH:0.845662
G1 X96.22 Y102.054 E10.61792
;WIDTH:0.894216
G1 X96.196 Y102.179 E10.63309
;WIDTH:0.94277
G1 X96.171 Y102.304 E10.64918
;WIDTH:0.991324
G1 X96.147 Y102.429 E10.66615
;WIDTH:1.003
G1 X96.158 Y102.692 E10.70169
G1 X96.229 Y102.771 E10.71603
;WIDTH:0.959715
G1 X96.3 Y102.85 E10.7297
;WIDTH:0.916429
G1 X96.371 Y102.929 E10.7427
;WIDTH:0.873143
G1 X96.443 Y103.008 E10.75511
;WIDTH:0.829857
G1 X96.514 Y103.088 E10.76686
;WIDTH:0.786571
G1 X96.585 Y103.167 E10.77786
;WIDTH:0.743285
G1 X96.656 Y103.246 E10.78819
;WIDTH:0.7
G1 X96.954 Y103.348 E10.81683
G1 X97.864 Y103.061 F7200
;TYPE:External perimeter
;WIDTH:0.554052
G1 F1800
G1 X97.814 Y103.087 E10.82076
;WIDTH:0.602701
G1 X97.762 Y103.115 E10.82529
;WIDTH:0.65135
G1 X97.71 Y103.143 E10.83024
;WIDTH:0.7
G1 X97.658 Y103.171 E10.83561
G1 X97.661 Y104.024 E10.91317
G1 X97.777 Y104.231 E10.93475
G1 X97.972 Y104.299 E10.95353
G1 X101.36 Y104.299 E11.2616
G1 X101.36 Y105.843 E11.402
G1 X101.36 Y107.006 E11.50775
G1 X100.943 Y107.006 E11.54567
G1 X100.753 Y107.07 E11.5639
G1 X100.63 Y107.319 E11.58915
G1 X100.63 Y107.747 E11.62807
G1 X97.168 Y107.761 E11.94287
;WIDTH:0.673321
G1 X96.65 Y107.774 E11.98797
;WIDTH:0.646643
G1 X96.551 Y107.776 E11.99621
;WIDTH:0.642345
G1 X95.418 Y107.776 E12.08973
G1 X95.418 Y107.493 E12.11309
G1 X95.361 Y107.4 E12.12209
;WIDTH:0.602568
G1 X95.304 Y107.307 E12.13046
;WIDTH:0.562792
G1 X95.246 Y107.215 E12.13818
;WIDTH:0.523016
G1 X95.189 Y107.122 E12.14529
;WIDTH:0.532332
G1 X95.148 Y107.096 E12.14852
;WIDTH:0.581424
G1 X95.106 Y107.071 E12.15212
;WIDTH:0.630516
G1 X95.065 Y107.045 E12.15604
;WIDTH:0.679608
G1 X95.024 Y107.02 E12.16026
;WIDTH:0.7287
G1 X94.982 Y106.994 E12.16496
;WIDTH:0.777792
G1 X94.941 Y106.968 E12.16992
;WIDTH:0.826885
G1 X94.9 Y106.943 E12.17517
G1 X94.524 Y106.943 E12.2163
G1 X94.524 Y106.135 E12.30469
G1 X94.503 Y105.884 E12.33224
;WIDTH:0.78459
G1 X94.482 Y105.633 E12.35824
;WIDTH:0.742295
G1 X94.46 Y105.383 E12.3826
;WIDTH:0.7
G1 X94.46 Y102.773 E12.61993
G1 X94.425 Y102.286 E12.66433
G1 X94.258 Y102.137 E12.68468
G1 X93.671 Y102.117 E12.73809
G1 X93.643 Y101.559 E12.78889
G1 X93.518 Y101.419 E12.80596
G1 X93.359 Y101.375 E12.82096
G1 X92.684 Y101.375 E12.88234
G1 X92.674 Y100.848 E12.93027
G1 X92.566 Y100.683 E12.9482
G1 X92.372 Y100.616 E12.96686
G1 X91.475 Y100.616 E13.04842
G1 X91.475 Y100.138 E13.09188
G1 X91.413 Y99.951 E13.10979
G1 X91.263 Y99.843 E13.1266
G1 X90.755 Y99.83 E13.17281
G1 X90.732 Y99.343 E13.21714
G1 X90.635 Y99.216 E13.23167
G1 X90.443 Y99.15 E13.25013
G1 X88.864 Y99.15 E13.39371
G1 X88.661 Y99.224 E13.41336
G1 X88.572 Y99.351 E13.42746
G1 X88.551 Y99.829 E13.47097
G1 X88.008 Y99.836 E13.52035
;WIDTH:0.728987
G1 X87.87 Y99.988 E13.53988
;WIDTH:0.757975
G1 X87.733 Y100.141 E13.56029
G1 X87.733 Y100.601 E13.606
G1 X87.391 Y100.601 E13.63998
G1 X87.367 Y100.644 E13.64487
;WIDTH:0.713555
G1 X87.343 Y100.686 E13.64936
;WIDTH:0.669136
G1 X87.32 Y100.729 E13.65358
;WIDTH:0.624717
G1 X87.296 Y100.772 E13.65752
;WIDTH:0.580298
G1 X87.272 Y100.814 E13.66108
;WIDTH:0.535878
G1 X87.248 Y100.857 E13.66438
;WIDTH:0.491459
G1 X87.224 Y100.9 E13.66736
;WIDTH:0.44704
G1 X87.2 Y100.942 E13.66998
;WIDTH:0.402621
G1 X87.2 Y102.259 E13.73274
G1 X86.872 Y102.259 E13.74837
G1 X86.872 Y100.942 E13.81113
;WIDTH:0.44704
G1 X86.894 Y100.842 E13.81667
;WIDTH:0.491459
G1 X86.917 Y100.742 E13.82289
;WIDTH:0.535878
G1 X86.939 Y100.642 E13.82976
;WIDTH:0.580298
G1 X86.961 Y100.542 E13.83729
;WIDTH:0.624717
G1 X86.983 Y100.442 E13.84548
;WIDTH:0.669136
G1 X87.006 Y100.341 E13.85443
;WIDTH:0.713555
G1 X87.028 Y100.241 E13.86394
;WIDTH:0.757975
G1 X87.05 Y100.141 E13.87411
G1 X87.035 Y99.614 E13.9265
;WIDTH:0.728987
G1 X87.021 Y99.086 E13.97676
;WIDTH:0.7
G1 X87.021 Y98.37 E14.04187
G1 X87.439 Y98.37 E14.07988
G1 X87.641 Y98.295 E14.09947
G1 X87.731 Y98.167 E14.1137
G1 X87.751 Y97.684 E14.15766
G1 X88.352 Y97.658 E14.21236
G1 X88.533 Y97.44 E14.23812
G1 X88.54 Y96.594 E14.31505
G1 X89.017 Y96.594 E14.35842
G1 X89.153 Y96.563 E14.3711
G1 X89.303 Y96.409 E14.39065
G1 X89.33 Y95.958 E14.43173
G1 X89.609 Y95.958 E14.4571
G1 X89.757 Y95.921 E14.47097
G1 X89.893 Y95.775 E14.48911
G1 X89.922 Y95.213 E14.54028
G1 X90.512 Y95.191 E14.59397
G1 X90.616 Y95.124 E14.60522
G1 X90.711 Y94.9 E14.62734
;WIDTH:0.729718
G1 X90.726 Y94.134 E14.70032
G1 X90.709 Y93.572 E14.75388
G1 X91.014 Y93.846 E14.79293
G1 X91.378 Y93.846 E14.8276
G1 X91.379 Y94.142 E14.8558
G1 X91.56 Y94.387 E14.88482
;WIDTH:0.7
G1 X91.63 Y94.414 E14.89164
G1 X92.182 Y94.423 E14.94184
G1 X92.191 Y94.975 E14.99204
G1 X92.343 Y95.174 E15.01481
G1 X92.494 Y95.213 E15.02899
G1 X93.359 Y95.213 E15.10764
G1 X93.57 Y95.13 E15.12826
G1 X93.666 Y94.954 E15.14649
G1 X93.671 Y94.423 E15.19478
G1 X94.17 Y94.423 E15.24015
G1 X94.221 Y94.345 E15.24862
;WIDTH:0.657721
G1 X94.273 Y94.267 E15.25657
;WIDTH:0.615443
G1 X94.324 Y94.189 E15.2639
;WIDTH:0.573165
G1 X94.376 Y94.111 E15.27069
;WIDTH:0.530887
G1 X94.376 Y92.457 E15.38039
;WIDTH:0.532808
G1 X94.377 Y92.169 E15.39957
;WIDTH:0.56436
G1 X94.696 Y92.185 E15.42231
;WIDTH:0.595913
G1 X95.014 Y92.201 E15.44644
G1 X94.923 Y92.329 E15.45834
;WIDTH:0.5634
G1 X94.832 Y92.457 E15.4695
;WIDTH:0.530887
G1 X94.832 Y94.111 E15.5792
;WIDTH:0.534339
G1 X94.83 Y94.19 E15.58448
;WIDTH:0.575754
G1 X94.809 Y94.383 E15.59862
;WIDTH:0.617169
G1 X94.788 Y94.575 E15.61385
;WIDTH:0.658584
G1 X94.768 Y94.768 E15.63032
;WIDTH:0.7
G1 X94.747 Y94.96 E15.64788
G1 X94.747 Y95.645 E15.71017
G1 X94.789 Y95.802 E15.72495
G1 X94.926 Y95.928 E15.74187
G1 X95.339 Y95.958 E15.77952
G1 X95.36 Y96.394 E15.81921
G1 X95.435 Y96.507 E15.83154
G1 X95.651 Y96.594 E15.85271
G1 X96.128 Y96.594 E15.89608
G1 X96.128 Y97.633 E15.99056
G1 X96.199 Y97.832 E16.00977
G1 X96.441 Y97.946 E16.03409
G1 X96.918 Y97.946 E16.07746
G1 X96.918 Y100.214 E16.28369
G1 X96.973 Y100.391 E16.30054
G1 X97.015 Y100.391 E16.30436
;WIDTH:0.65537
G1 X97.058 Y100.391 E16.30799
;WIDTH:0.61074
G1 X97.101 Y100.392 E16.31134
;WIDTH:0.56611
G1 X97.144 Y100.392 E16.31441
;WIDTH:0.52148
G1 X97.187 Y100.392 E16.3172
;WIDTH:0.47685
G1 X97.23 Y100.392 E16.31971
;WIDTH:0.459212
G1 X98.193 Y100.379 E16.37354
G1 X98.21 Y100.328 E16.37654
;WIDTH:0.425568
G1 X98.226 Y100.276 E16.37931
;WIDTH:0.436597
G1 X98.252 Y100.274 E16.38068
;WIDTH:0.481271
G1 X98.278 Y100.272 E16.38222
;WIDTH:0.525944
G1 X98.304 Y100.27 E16.38393
;WIDTH:0.570618
G1 X98.331 Y100.268 E16.38588
;WIDTH:0.615291
G1 X98.357 Y100.266 E16.38793
;WIDTH:0.659965
G1 X98.405 Y100.277 E16.39212
;WIDTH:0.615291
G1 X98.427 Y100.289 E16.39409
;WIDTH:0.570618
G1 X98.45 Y100.302 E16.39599
;WIDTH:0.525944
G1 X98.472 Y100.314 E16.39763
;WIDTH:0.481271
G1 X98.494 Y100.326 E16.39911
;WIDTH:0.436597
G1 X98.517 Y100.339 E16.4005
;WIDTH:0.425568
G1 X98.5 Y100.537 E16.41063
;WIDTH:0.459212
G1 X98.483 Y100.736 E16.42179
G1 X98.095 Y100.75 E16.44349
;WIDTH:0.47685
G1 X97.908 Y100.75 E16.45442
;WIDTH:0.52148
G1 X97.721 Y100.75 E16.46657
;WIDTH:0.56611
G1 X97.534 Y100.75 E16.47993
;WIDTH:0.61074
G1 X97.347 Y100.751 E16.49451
;WIDTH:0.65537
G1 X97.16 Y100.751 E16.5103
;WIDTH:0.7
G1 X96.973 Y100.751 E16.5273
G1 X96.918 Y100.928 E16.54415
G1 X96.922 Y102.558 E16.69237
G1 X97.039 Y102.751 E16.71289
G1 X97.303 Y102.817 E16.73763
G1 X97.414 Y102.792 E16.74798
;WIDTH:0.65135
G1 X97.525 Y102.768 E16.7575
;WIDTH:0.602701
G1 X97.636 Y102.744 E16.76622
;WIDTH:0.554052
G1 X97.748 Y102.719 E16.77422
;WIDTH:0.505402
G1 X97.859 Y102.695 E16.78133
;WIDTH:0.456753
G1 X97.97 Y102.671 E16.78764
;WIDTH:0.408104
G1 X100.024 Y102.671 E16.88717
G1 X100.024 Y103.004 E16.90331
G1 X97.97 Y103.004 E17.00284
;WIDTH:0.456753
G1 X97.918 Y103.032 E17.00612
G1 X97.659 Y103.336 F7200
G1 E10.50612 F1500
G92 E0
G1 X99.263 Y105.111 F7200
G1 E6.5 F1500
;TYPE:Solid infill
;WIDTH:0.71887
G1 F1800
G1 X100.266 Y106.114 E6.63287
G1 X100.266 Y106.133 E6.63465
G1 X100.101 Y106.189 E6.65097
G1 X99.844 Y106.437 E6.68443
G1 X99.8 Y106.558 E6.69649
G1 X98.634 Y105.392 E6.85096
G1 X97.957 Y105.392 E6.91438
G1 X97.688 Y105.343 E6.93999
G1 X98.985 Y106.654 E7.11274
G1 X98.075 Y106.654 E7.19798
G1 X97.675 Y106.254 E7.25097
G1 X97.293 Y104.962 F7200
G1 F1800
G1 X95.585 Y103.254 E7.47724
G1 X95.554 Y103.305 E7.48283
G1 X95.554 Y104.133 E7.56039
G1 X96.431 Y105.01 E7.67657
G1 E1.17657 F1500
G92 E0
G1 X96.105 Y99.222 F7200
G1 E6.5 F1500
G1 F1800
G1 X93.189 Y96.306 E6.8863
G1 X92.487 Y96.306 E6.95206
G1 X92.258 Y96.285 E6.9736
G1 X95.824 Y99.851 E7.44601
G1 X95.824 Y100.221 E7.48067
G1 X95.844 Y100.451 E7.5023
G1 X95.873 Y100.571 E7.51386
G1 X95.837 Y100.774 E7.53317
G1 X91.145 Y96.083 E8.15469
G1 X90.898 Y96.216 E8.18097
G1 X90.693 Y96.541 E8.21696
G1 X95.818 Y101.666 E8.8959
G1 X95.645 Y102.11 E8.94054
G1 X95.024 Y101.327 E9.03416
